X: 17715
T: Home In A Box
R: reel
M: 4/4
K: Gmajor
GD (3DDD GDAD|GD (3DDD GABG|AD (3DDD A3 B|cBAG FDEF|
GD (3DDD GDAD|GD (3DDD GABG|AD (3DDD A3 F|DFAF G4:|
BG (3GGG eGdG|^cdde dBAG|Fd^cd =cAFE|Fd^cd =cAFA|
BG (3GGG eGdG|^cdde dBAG|Fd^cd =cAFE|DFAF G4:|

